usr/share/icons/biglinux-icons-material/scalable/apps/qgo.svg

<?xml version="1.0" encoding="UTF-8" standalone="no"?>
<svg
   width="24"
   height="24"
   viewBox="0 0 6.349875 6.349875"
   version="1.1"
   id="svg4"
   sodipodi:docname="sabaki.svg"
   inkscape:version="1.3 (0e150ed6c4, 2023-07-21)"
   xmlns:inkscape="http://www.inkscape.org/namespaces/inkscape"
   xmlns:sodipodi="http://sodipodi.sourceforge.net/DTD/sodipodi-0.dtd"
   xmlns="http://www.w3.org/2000/svg"
   xmlns:svg="http://www.w3.org/2000/svg">
  <defs
     id="defs4">
    <radialGradient
       id="paint0_radial_3_321"
       cx="0"
       cy="0"
       r="1"
       gradientUnits="userSpaceOnUse"
       gradientTransform="matrix(0,5.8207186,-5.8207186,0,3.174934,0.26458206)">
      <stop
         stop-color="#555555"
         id="stop180"
         offset="0"
         style="stop-color:#707070;stop-opacity:1;" />
      <stop
         offset="1"
         stop-color="#222222"
         id="stop182"
         style="stop-color:#4d4d4d;stop-opacity:1;" />
    </radialGradient>
  </defs>
  <sodipodi:namedview
     id="namedview4"
     pagecolor="#ffffff"
     bordercolor="#000000"
     borderopacity="0.25"
     inkscape:showpageshadow="2"
     inkscape:pageopacity="0.0"
     inkscape:pagecheckerboard="0"
     inkscape:deskcolor="#d1d1d1"
     inkscape:zoom="9.6875"
     inkscape:cx="31.948387"
     inkscape:cy="31.948387"
     inkscape:window-width="2560"
     inkscape:window-height="998"
     inkscape:window-x="0"
     inkscape:window-y="0"
     inkscape:window-maximized="1"
     inkscape:current-layer="svg4" />
  <path
     fill-rule="evenodd"
     clip-rule="evenodd"
     d="m 2.5388988,0.29463549 c 0.031707,3.3602e-4 0.062015,-0.003701 0.090922,-0.0121177 0.3798839,-0.0248846 0.7597122,-0.0238753 1.1395406,0.003029 0.3444016,0.026834 0.6777965,0.10155611 1.0001585,0.2241669 C 5.3054493,0.73035597 5.672181,1.1130576 5.8696622,1.6578134 5.9826106,1.9857924 6.0492842,2.3230554 6.0697097,2.6695972 6.0979402,3.1047488 6.0878333,3.538948 6.039389,3.9721947 6.0031418,4.2766976 5.924324,4.5695327 5.8029885,4.8506734 5.5779383,5.3381586 5.2132438,5.6744109 4.708905,5.8594304 4.3002112,5.9975137 3.8799553,6.0702198 3.4481109,6.0775221 2.9623719,6.1027893 2.4815092,6.0664363 2.0054908,5.9684895 1.1293192,5.7733102 0.58883903,5.239127 0.38405292,4.3659927 0.29714695,3.9729355 0.25774836,3.5750894 0.26585265,3.1724544 0.25615586,2.7443141 0.30161567,2.3222299 0.40223738,1.9062126 0.61691606,1.0898224 1.135169,0.5839305 1.9569989,0.3885422 2.1484979,0.3417251 2.3424655,0.31042287 2.5388988,0.29463549 Z"
     fill="url(#paint0_radial_3_321)"
     id="path174"
     style="fill:url(#paint0_radial_3_321);stroke-width:0.264578" />
  <g
     id="g4"
     transform="matrix(0.32496521,0,0,0.32496521,-3.015502,0.42414174)"
     style="stroke-width:3.07725">
    <circle
       cx="16.271305"
       cy="5.6887093"
       r="2.51351"
       fill="#ffffff"
       id="circle1"
       style="stroke-width:0.814179" />
    <circle
       cx="21.827221"
       cy="5.6862741"
       r="2.51351"
       fill="#333333"
       id="circle2"
       style="stroke-width:0.814179" />
    <circle
       cx="16.271305"
       cy="11.243356"
       r="2.51351"
       fill="#333333"
       id="circle3"
       style="stroke-width:0.814179" />
    <circle
       cx="21.827785"
       cy="11.243512"
       r="2.51351"
       fill="#ffffff"
       id="circle4"
       style="stroke-width:0.814179" />
  </g>
</svg>

<svg xmlns="http://www.w3.org/2000/svg" width="24" height="24" viewBox="0 0 6.35 6.35"><defs><radialGradient id="a" cx="0" cy="0" r="1" gradientTransform="rotate(90 1.455 1.72) scale(5.82072)" gradientUnits="userSpaceOnUse"><stop offset="0" stop-color="#555" style="stop-color:#707070;stop-opacity:1"/><stop offset="1" stop-color="#222" style="stop-color:#4d4d4d;stop-opacity:1"/></radialGradient></defs><path fill="url(#a)" fill-rule="evenodd" d="M2.539.295a.312.312 0 0 0 .09-.012c.38-.025.76-.024 1.14.003.345.026.678.101 1 .224.536.22.903.603 1.1 1.148.114.328.18.665.2 1.012.029.435.019.869-.03 1.302a3.143 3.143 0 0 1-.236.879 1.87 1.87 0 0 1-1.094 1.008c-.409.139-.829.211-1.26.219a5.668 5.668 0 0 1-1.444-.11C1.13 5.773.59 5.24.385 4.366a5.04 5.04 0 0 1-.12-1.194c-.009-.428.037-.85.137-1.266C.617 1.09 1.135.584 1.957.39c.191-.047.385-.079.582-.094Z" clip-rule="evenodd" style="fill:url(#a);stroke-width:.264578"/><g style="stroke-width:3.07725" transform="matrix(.32497 0 0 .32497 -3.016 .424)"><circle cx="16.271" cy="5.689" r="2.514" fill="#fff" style="stroke-width:.814179"/><circle cx="21.827" cy="5.686" r="2.514" fill="#333" style="stroke-width:.814179"/><circle cx="16.271" cy="11.243" r="2.514" fill="#333" style="stroke-width:.814179"/><circle cx="21.828" cy="11.244" r="2.514" fill="#fff" style="stroke-width:.814179"/></g></svg>
